_includes/icons/color-microsoft-excel.svg

<svg fill="#666" height="50" viewBox="0 0 48 48" width="50" xmlns="http://www.w3.org/2000/svg"><path d="m41 10h-16v28h16c.554688 0 1-.445312 1-1v-26c0-.554687-.445312-1-1-1z" fill="#4caf50"/><g fill="#fff"><path d="m32 15h7v3h-7z"/><path d="m32 25h7v3h-7z"/><path d="m32 30h7v3h-7z"/><path d="m32 20h7v3h-7z"/><path d="m25 15h5v3h-5z"/><path d="m25 25h5v3h-5z"/><path d="m25 30h5v3h-5z"/><path d="m25 20h5v3h-5z"/></g><path d="m27 42-21-4v-28l21-4z" fill="#2e7d32"/><path d="m19.128906 31-2.410156-4.5625c-.09375-.167969-.1875-.480469-.285156-.9375h-.035156c-.046875.214844-.15625.542969-.324219.980469l-2.421875 4.519531h-3.757813l4.460938-7-4.082031-7h3.835937l2.003906 4.195313c.15625.332031.292969.726562.417969 1.179687h.039063c.078125-.269531.226562-.679687.441406-1.21875l2.226562-4.15625h3.515625l-4.199218 6.9375 4.3125 7.058594h-3.738282z" fill="#fff"/></svg>

<svg xmlns="http://www.w3.org/2000/svg" viewBox="0 0 48 48" width="50" height="50" fill="#666"><path d="M 41 10 L 25 10 L 25 38 L 41 38 C 41.554688 38 42 37.554688 42 37 L 42 11 C 42 10.445313 41.554688 10 41 10 Z" fill="#4caf50"/><path d="M 32 15 L 39 15 L 39 18 L 32 18 Z" fill="#fff"/><path d="M 32 25 L 39 25 L 39 28 L 32 28 Z" fill="#fff"/><path d="M 32 30 L 39 30 L 39 33 L 32 33 Z" fill="#fff"/><path d="M 32 20 L 39 20 L 39 23 L 32 23 Z" fill="#fff"/><path d="M 25 15 L 30 15 L 30 18 L 25 18 Z" fill="#fff"/><path d="M 25 25 L 30 25 L 30 28 L 25 28 Z" fill="#fff"/><path d="M 25 30 L 30 30 L 30 33 L 25 33 Z" fill="#fff"/><path d="M 25 20 L 30 20 L 30 23 L 25 23 Z" fill="#fff"/><path d="M 27 42 L 6 38 L 6 10 L 27 6 Z" fill="#2e7d32"/><path d="M 19.128906 31 L 16.71875 26.4375 C 16.625 26.269531 16.53125 25.957031 16.433594 25.5 L 16.398438 25.5 C 16.351563 25.714844 16.242188 26.042969 16.074219 26.480469 L 13.652344 31 L 9.894531 31 L 14.355469 24 L 10.273438 17 L 14.109375 17 L 16.113281 21.195313 C 16.269531 21.527344 16.40625 21.921875 16.53125 22.375 L 16.570313 22.375 C 16.648438 22.105469 16.796875 21.695313 17.011719 21.15625 L 19.238281 17 L 22.753906 17 L 18.554688 23.9375 L 22.867188 30.996094 L 19.128906 30.996094 Z" fill="#fff"/></svg>
